src/svg/openhand.svg

<?xml version="1.0" encoding="UTF-8" standalone="no"?>
<svg width="35px" height="35px" viewBox="0 0 35 35" version="1.1" xmlns="http://www.w3.org/2000/svg" xmlns:xlink="http://www.w3.org/1999/xlink">
    <defs></defs>
    <g id="Page-1" stroke="none" stroke-width="1" fill="none" fill-rule="evenodd">
        <g id="openhand">
            <g id="bg-copy" fill="#FFFFFF" opacity="0.00999999978">
                <rect id="bg" x="0" y="0" width="35" height="35"></rect>
            </g>
            <path d="M13.5557,17.5742 C13.4577,17.1992 13.3597,16.7272 13.1497,16.0222 C12.9827,15.4652 12.8077,15.1632 12.6797,14.7892 C12.5247,14.3342 12.3767,14.0682 12.1837,13.6082 C12.0447,13.2792 11.8197,12.5602 11.7267,12.1682 C11.6077,11.6592 11.7597,11.2442 11.9707,10.9622 C12.2237,10.6232 12.9327,10.4722 13.3277,10.6112 C13.6987,10.7412 14.0717,11.1232 14.2437,11.3992 C14.5317,11.8592 14.6007,12.0312 14.9607,12.9412 C15.3537,13.9332 15.5247,14.8592 15.5717,15.1722 L15.6567,15.6242 C15.6557,15.5842 15.6137,14.5022 15.6127,14.4622 C15.5777,13.4332 15.5527,12.6392 15.5747,11.5232 C15.5767,11.3972 15.6387,10.9362 15.6587,10.8082 C15.7367,10.3082 15.9637,10.0082 16.3317,9.8292 C16.7437,9.6282 17.2577,9.6142 17.7327,9.8122 C18.1557,9.9852 18.3587,10.3622 18.4197,10.8342 C18.4337,10.9432 18.5137,11.8212 18.5127,11.9412 C18.4997,12.9662 18.5187,13.5822 18.5277,14.1152 C18.5317,14.3462 18.5307,15.7402 18.5447,15.5842 C18.6057,14.9282 18.6387,12.3952 18.8887,11.6422 C19.0327,11.2092 19.2937,10.8962 19.6827,10.7132 C20.1137,10.5102 20.7957,10.6432 21.0867,10.9562 C21.3717,11.2612 21.5327,11.6482 21.5687,12.1092 C21.6007,12.5142 21.5497,13.0062 21.5487,13.3542 C21.5487,14.2212 21.5277,14.6782 21.5117,15.4752 C21.5107,15.5132 21.4967,15.7732 21.5347,15.6572 C21.6287,15.3772 21.7227,15.1152 21.8007,14.9122 C21.8497,14.7872 22.0417,14.2982 22.1597,14.0532 C22.2737,13.8192 22.3707,13.6842 22.5747,13.3652 C22.7747,13.0522 22.9897,12.9172 23.2427,12.8042 C23.7827,12.5692 24.3517,12.9162 24.5437,13.3952 C24.6297,13.6102 24.5527,14.1082 24.5157,14.5002 C24.4547,15.1472 24.2617,15.8062 24.1637,16.1482 C24.0357,16.5952 23.8897,17.3832 23.8237,17.7492 C23.7517,18.1432 23.5897,19.1312 23.4647,19.5692 C23.3787,19.8702 23.0937,20.5472 22.8127,20.9532 C22.8127,20.9532 21.7387,22.2032 21.6207,22.7652 C21.5037,23.3282 21.5427,23.3322 21.5197,23.7302 C21.4957,24.1292 21.6407,24.6532 21.6407,24.6532 C21.6407,24.6532 20.8387,24.7572 20.4067,24.6872 C20.0157,24.6252 19.5317,23.8462 19.4067,23.6092 C19.2347,23.2812 18.8677,23.3442 18.7247,23.5862 C18.4997,23.9692 18.0157,24.6562 17.6737,24.6992 C17.0057,24.7832 15.6197,24.7292 14.5347,24.7192 C14.5347,24.7192 14.7197,23.7082 14.3077,23.3612 C14.0027,23.1012 13.4777,22.5772 13.1637,22.3012 L12.3317,21.3802 C12.0477,21.0202 11.7027,20.2872 11.0887,19.3952 C10.7407,18.8912 10.0617,18.3102 9.8047,17.8162 C9.5817,17.3912 9.4737,16.8622 9.6147,16.4912 C9.8397,15.8972 10.2897,15.5942 10.9767,15.6592 C11.4957,15.7092 11.8247,15.8652 12.2147,16.1962 C12.4397,16.3862 12.7877,16.7302 12.9647,16.9442 C13.1277,17.1392 13.1677,17.2202 13.3417,17.4532 C13.5717,17.7602 13.6437,17.9122 13.5557,17.5742" id="hand" fill="#FFFFFF"></path>
            <path d="M13.5557,17.5742 C13.4577,17.1992 13.3597,16.7272 13.1497,16.0222 C12.9827,15.4652 12.8077,15.1632 12.6797,14.7892 C12.5247,14.3342 12.3767,14.0682 12.1837,13.6082 C12.0447,13.2792 11.8197,12.5602 11.7267,12.1682 C11.6077,11.6592 11.7597,11.2442 11.9707,10.9622 C12.2237,10.6232 12.9327,10.4722 13.3277,10.6112 C13.6987,10.7412 14.0717,11.1232 14.2437,11.3992 C14.5317,11.8592 14.6007,12.0312 14.9607,12.9412 C15.3537,13.9332 15.5247,14.8592 15.5717,15.1722 L15.6567,15.6242 C15.6557,15.5842 15.6137,14.5022 15.6127,14.4622 C15.5777,13.4332 15.5527,12.6392 15.5747,11.5232 C15.5767,11.3972 15.6387,10.9362 15.6587,10.8082 C15.7367,10.3082 15.9637,10.0082 16.3317,9.8292 C16.7437,9.6282 17.2577,9.6142 17.7327,9.8122 C18.1557,9.9852 18.3587,10.3622 18.4197,10.8342 C18.4337,10.9432 18.5137,11.8212 18.5127,11.9412 C18.4997,12.9662 18.5187,13.5822 18.5277,14.1152 C18.5317,14.3462 18.5307,15.7402 18.5447,15.5842 C18.6057,14.9282 18.6387,12.3952 18.8887,11.6422 C19.0327,11.2092 19.2937,10.8962 19.6827,10.7132 C20.1137,10.5102 20.7957,10.6432 21.0867,10.9562 C21.3717,11.2612 21.5327,11.6482 21.5687,12.1092 C21.6007,12.5142 21.5497,13.0062 21.5487,13.3542 C21.5487,14.2212 21.5277,14.6782 21.5117,15.4752 C21.5107,15.5132 21.4967,15.7732 21.5347,15.6572 C21.6287,15.3772 21.7227,15.1152 21.8007,14.9122 C21.8497,14.7872 22.0417,14.2982 22.1597,14.0532 C22.2737,13.8192 22.3707,13.6842 22.5747,13.3652 C22.7747,13.0522 22.9897,12.9172 23.2427,12.8042 C23.7827,12.5692 24.3517,12.9162 24.5437,13.3952 C24.6297,13.6102 24.5527,14.1082 24.5157,14.5002 C24.4547,15.1472 24.2617,15.8062 24.1637,16.1482 C24.0357,16.5952 23.8897,17.3832 23.8237,17.7492 C23.7517,18.1432 23.5897,19.1312 23.4647,19.5692 C23.3787,19.8702 23.0937,20.5472 22.8127,20.9532 C22.8127,20.9532 21.7387,22.2032 21.6207,22.7652 C21.5037,23.3282 21.5427,23.3322 21.5197,23.7302 C21.4957,24.1292 21.6407,24.6532 21.6407,24.6532 C21.6407,24.6532 20.8387,24.7572 20.4067,24.6872 C20.0157,24.6252 19.5317,23.8462 19.4067,23.6092 C19.2347,23.2812 18.8677,23.3442 18.7247,23.5862 C18.4997,23.9692 18.0157,24.6562 17.6737,24.6992 C17.0057,24.7832 15.6197,24.7292 14.5347,24.7192 C14.5347,24.7192 14.7197,23.7082 14.3077,23.3612 C14.0027,23.1012 13.4777,22.5772 13.1637,22.3012 L12.3317,21.3802 C12.0477,21.0202 11.7027,20.2872 11.0887,19.3952 C10.7407,18.8912 10.0617,18.3102 9.8047,17.8162 C9.5817,17.3912 9.4737,16.8622 9.6147,16.4912 C9.8397,15.8972 10.2897,15.5942 10.9767,15.6592 C11.4957,15.7092 11.8247,15.8652 12.2147,16.1962 C12.4397,16.3862 12.7877,16.7302 12.9647,16.9442 C13.1277,17.1392 13.1677,17.2202 13.3417,17.4532 C13.5717,17.7602 13.6437,17.9122 13.5557,17.5742" id="hand-border" stroke="#000000" stroke-width="0.75" stroke-linecap="round" stroke-linejoin="round"></path>
            <path d="M20.5664,21.7344 L20.5664,18.2754" id="line3" stroke="#000000" stroke-width="0.75" stroke-linecap="round"></path>
            <path d="M18.5508,21.7461 L18.5348,18.2731" id="line2" stroke="#000000" stroke-width="0.75" stroke-linecap="round"></path>
            <path d="M16.5547,18.3047 L16.5757,21.7307" id="line1" stroke="#000000" stroke-width="0.75" stroke-linecap="round"></path>
        </g>
    </g>
</svg>

<svg height="35" viewBox="0 0 35 35" width="35" xmlns="http://www.w3.org/2000/svg"><g fill="none" fill-rule="evenodd"><path d="m13.5557 17.5742c-.098-.375-.196-.847-.406-1.552-.167-.557-.342-.859-.47-1.233-.155-.455-.303-.721-.496-1.181-.139-.329-.364-1.048-.457-1.44-.119-.509.033-.924.244-1.206.253-.339.962-.49 1.357-.351.371.13.744.512.916.788.288.46.357.632.717 1.542.393.992.564 1.918.611 2.231l.085.452c-.001-.04-.043-1.122-.044-1.162-.035-1.029-.06-1.823-.038-2.939.002-.126.064-.587.084-.715.078-.5.305-.8.673-.979.412-.201.926-.215 1.401-.017.423.173.626.55.687 1.022.014.109.094.987.093 1.107-.013 1.025.006 1.641.015 2.174.004.231.003 1.625.017 1.469.061-.656.094-3.189.344-3.942.144-.433.405-.746.794-.929.431-.203 1.113-.07 1.404.243.285.305.446.692.482 1.153.032.405-.019.897-.02 1.245 0 .867-.021 1.324-.037 2.121-.001.038-.015.298.023.182.094-.28.188-.542.266-.745.049-.125.241-.614.359-.859.114-.234.211-.369.415-.688.2-.313.415-.448.668-.561.54-.235 1.109.112 1.301.591.086.215.009.713-.028 1.105-.061.647-.254 1.306-.352 1.648-.128.447-.274 1.235-.34 1.601-.072.394-.234 1.382-.359 1.82-.086.301-.371.978-.652 1.384 0 0-1.074 1.25-1.192 1.812-.117.563-.078.567-.101.965-.024.399.121.923.121.923s-.802.104-1.234.034c-.391-.062-.875-.841-1-1.078-.172-.328-.539-.265-.682-.023-.225.383-.709 1.07-1.051 1.113-.668.084-2.054.03-3.139.02 0 0 .185-1.011-.227-1.358-.305-.26-.83-.784-1.144-1.06l-.832-.921c-.284-.36-.629-1.093-1.243-1.985-.348-.504-1.027-1.085-1.284-1.579-.223-.425-.331-.954-.19-1.325.225-.594.675-.897 1.362-.832.519.05.848.206 1.238.537.225.19.573.534.75.748.163.195.203.276.377.509.23.307.302.459.214.121" fill="#fff"/><g stroke="#000" stroke-linecap="round" stroke-width=".75"><path d="m13.5557 17.5742c-.098-.375-.196-.847-.406-1.552-.167-.557-.342-.859-.47-1.233-.155-.455-.303-.721-.496-1.181-.139-.329-.364-1.048-.457-1.44-.119-.509.033-.924.244-1.206.253-.339.962-.49 1.357-.351.371.13.744.512.916.788.288.46.357.632.717 1.542.393.992.564 1.918.611 2.231l.085.452c-.001-.04-.043-1.122-.044-1.162-.035-1.029-.06-1.823-.038-2.939.002-.126.064-.587.084-.715.078-.5.305-.8.673-.979.412-.201.926-.215 1.401-.017.423.173.626.55.687 1.022.014.109.094.987.093 1.107-.013 1.025.006 1.641.015 2.174.004.231.003 1.625.017 1.469.061-.656.094-3.189.344-3.942.144-.433.405-.746.794-.929.431-.203 1.113-.07 1.404.243.285.305.446.692.482 1.153.032.405-.019.897-.02 1.245 0 .867-.021 1.324-.037 2.121-.001.038-.015.298.023.182.094-.28.188-.542.266-.745.049-.125.241-.614.359-.859.114-.234.211-.369.415-.688.2-.313.415-.448.668-.561.54-.235 1.109.112 1.301.591.086.215.009.713-.028 1.105-.061.647-.254 1.306-.352 1.648-.128.447-.274 1.235-.34 1.601-.072.394-.234 1.382-.359 1.82-.086.301-.371.978-.652 1.384 0 0-1.074 1.25-1.192 1.812-.117.563-.078.567-.101.965-.024.399.121.923.121.923s-.802.104-1.234.034c-.391-.062-.875-.841-1-1.078-.172-.328-.539-.265-.682-.023-.225.383-.709 1.07-1.051 1.113-.668.084-2.054.03-3.139.02 0 0 .185-1.011-.227-1.358-.305-.26-.83-.784-1.144-1.06l-.832-.921c-.284-.36-.629-1.093-1.243-1.985-.348-.504-1.027-1.085-1.284-1.579-.223-.425-.331-.954-.19-1.325.225-.594.675-.897 1.362-.832.519.05.848.206 1.238.537.225.19.573.534.75.748.163.195.203.276.377.509.23.307.302.459.214.121" stroke-linejoin="round"/><path d="m20.5664 21.7344v-3.459"/><path d="m18.5508 21.7461-.016-3.473"/><path d="m16.5547 18.3047.021 3.426"/></g></g></svg>
